lib/flags/gt-guatemala.svg

<svg xmlns="http://www.w3.org/2000/svg" fill="none" aria-hidden="true" viewBox="0 0 42 30"><g id="Country=GT - Guatemala, Size=sm (36x24)" filter="url(#filter0_dd_91_27824)"><g clip-path="url(#clip0_91_27824)"><g id="flag"><mask id="mask0_91_27824" width="36" height="24" x="3" y="2" maskUnits="userSpaceOnUse" style="mask-type:alpha"><rect id="mask" width="36" height="24" x="3" y="2" fill="white"/></mask><g mask="url(#mask0_91_27824)"><g id="contents"><path id="bottom" fill="#58A5FF" fill-rule="evenodd" d="M27.75 2H39V26H27.75V2Z" clip-rule="evenodd"/><path id="left" fill="#58A5FF" fill-rule="evenodd" d="M3 2H16.5V26H3V2Z" clip-rule="evenodd"/><path id="middle" fill="white" fill-rule="evenodd" d="M14.25 2H27.75V26H14.25V2Z" clip-rule="evenodd"/><g id="mark"><path id="Path 431" fill="#6C301F" fill-rule="evenodd" d="M16.2393 17.7181L16.8262 18.4012L19.4918 15.1893V14.6206L16.2393 17.7181Z" clip-rule="evenodd"/><path id="Path 432" fill="#979797" d="M18.0796 14.1356L18.2745 13.897C20.7987 15.5841 22.5871 16.8792 23.5871 17.9584L22.9627 18.4156C22.0122 17.3898 20.5569 15.7913 18.0796 14.1356Z"/><path id="Path 433" fill="#979797" d="M22.1483 12.7252L21.8579 12.475L23.4495 11.0158L23.7982 11.3169L25.4506 9.94922L25.7262 10.2123L23.7923 11.8131L23.4581 11.5244L22.1483 12.7252Z"/><path id="Combined Shape" fill="#5AB92D" fill-rule="evenodd" d="M17.0687 10.4452C16.9838 10.1169 16.888 9.71143 16.888 9.71143C16.6748 10.1436 16.6077 10.5368 16.6933 10.8883C16.6027 10.9991 16.5207 11.1029 16.4472 11.1998C16.218 10.9307 15.9321 10.4274 15.9321 10.4274C15.942 10.5739 15.9375 10.7234 15.9331 10.8686C15.9228 11.2097 15.9132 11.5269 16.0934 11.7256L16.0912 11.7295C16.0553 11.7953 16.0212 11.861 15.989 11.9265C15.7407 11.7064 15.3285 11.3095 15.3285 11.3095C15.3608 11.7855 15.509 12.1606 15.7782 12.4282C15.7295 12.5677 15.6893 12.7064 15.6574 12.8443C15.4492 12.6528 15.2483 12.4636 15.2483 12.4636C15.2778 12.898 15.3595 13.1849 15.5718 13.426C15.5675 13.4945 15.5654 13.5628 15.5652 13.6309C15.3452 13.4291 15.1216 13.2185 15.1216 13.2185C15.1526 13.6767 15.3536 13.9783 15.6184 14.2294C15.6447 14.3745 15.6806 14.5181 15.7259 14.6601L15.7501 14.7349C15.4507 14.6063 15.1235 14.4602 15.1235 14.4602C15.3188 14.8607 15.6041 15.0813 15.9285 15.2357C15.9979 15.4151 16.0711 15.5886 16.1479 15.7556C15.7966 15.6708 15.2721 15.5312 15.2721 15.5312C15.5831 15.9499 15.9647 16.1162 16.3748 16.2119C16.4585 16.3675 16.5455 16.5162 16.6354 16.6573C16.3026 16.5743 15.912 16.4704 15.912 16.4704C16.2141 16.877 16.5828 17.0456 16.9794 17.1426C17.241 17.4732 17.5211 17.7449 17.8134 17.9482C17.4913 18.0782 17.0858 18.2338 17.0858 18.2338C17.5438 18.3548 17.9097 18.3084 18.2437 18.1937C18.2568 18.1996 18.2699 18.2053 18.283 18.2109C18.4272 18.2723 18.5887 18.3302 18.7708 18.3867C18.5067 18.4911 18.2552 18.5876 18.2552 18.5876C18.7025 18.7058 19.0621 18.6643 19.3898 18.5554L19.4253 18.5641C19.5861 18.603 19.7498 18.6403 19.9653 18.6878C19.8228 18.6564 20.3491 18.7718 20.456 18.7959C20.7982 18.8733 20.993 18.9277 21.0866 18.9745C21.0953 18.9789 21.1017 18.9825 21.1057 18.9848L21.1057 18.9848C21.1098 18.9871 21.1115 18.988 21.1106 18.987L21.3724 18.8179C21.3421 18.7808 21.2999 18.7512 21.2454 18.724C21.117 18.6597 20.9087 18.6016 20.5358 18.5172C20.4297 18.4932 19.9199 18.3814 20.0353 18.4069C19.8258 18.3607 19.6664 18.3243 19.5104 18.2866C19.4639 18.2753 19.4185 18.2641 19.3741 18.2529C19.4114 17.9471 19.368 17.6301 19.1334 17.2769C19.1334 17.2769 19.0313 17.8286 18.962 18.1407C18.7551 18.0793 18.5768 18.0171 18.4228 17.9515C18.3708 17.9294 18.319 17.9047 18.2673 17.8774C18.2466 17.5654 18.1435 17.2551 17.8385 16.9383C17.8385 16.9383 17.8431 17.289 17.8414 17.5929C17.6287 17.4203 17.4221 17.2056 17.2252 16.9535L17.3633 17.0185C17.3785 16.6294 17.311 16.2459 16.9323 15.8525C16.9323 15.8525 16.9372 16.2319 16.9349 16.5434C16.8119 16.3526 16.6941 16.1464 16.5824 15.9262C16.6861 15.6236 16.7112 15.2976 16.5445 14.9025C16.5445 14.9025 16.4454 15.1534 16.3415 15.4065C16.3111 15.3345 16.2813 15.2614 16.2521 15.1871C16.4643 14.8706 16.6004 14.52 16.4993 14.0374C16.4993 14.0374 16.2581 14.4188 16.0742 14.6953C16.0617 14.6576 16.0494 14.6197 16.0372 14.5815C15.9985 14.4604 15.9672 14.338 15.9436 14.2143C16.2459 13.9866 16.4903 13.7029 16.577 13.2395C16.577 13.2395 16.1727 13.5482 15.891 13.7529C15.8871 13.6499 15.8884 13.5462 15.8949 13.4418C16.2205 13.2661 16.5008 13.0263 16.67 12.6003C16.67 12.6003 16.2712 12.8104 15.96 12.967C15.9821 12.8623 16.0094 12.7569 16.042 12.6509L16.0424 12.6612C16.4291 12.4783 16.769 12.2346 16.9629 11.7464C16.9629 11.7464 16.5623 11.9575 16.2507 12.1142C16.2911 12.0282 16.3349 11.9418 16.3823 11.8552C16.4386 11.7521 16.5185 11.6291 16.622 11.4865C16.9672 11.3893 17.2885 11.2207 17.5618 10.8665C17.5618 10.8665 17.2858 10.9353 16.9995 11.0034C17.1655 10.8025 17.3602 10.5776 17.5835 10.3292L17.3307 10.1497C17.2387 10.2521 17.1514 10.3506 17.0687 10.4452Z" clip-rule="evenodd"/><path id="Combined Shape_2" fill="#5AB92D" fill-rule="evenodd" d="M25.088 10.4452C25.1729 10.1169 25.2688 9.71143 25.2688 9.71143C25.4819 10.1436 25.549 10.5368 25.4634 10.8883C25.554 10.9991 25.636 11.1029 25.7095 11.1998C25.9387 10.9307 26.2247 10.4274 26.2247 10.4274C26.2147 10.5739 26.2192 10.7234 26.2236 10.8686C26.2339 11.2097 26.2435 11.5269 26.0633 11.7256L26.0655 11.7295C26.1014 11.7953 26.1355 11.861 26.1677 11.9265C26.4161 11.7064 26.8282 11.3095 26.8282 11.3095C26.796 11.7855 26.6478 12.1606 26.3785 12.4282C26.4272 12.5677 26.4674 12.7064 26.4993 12.8443C26.7076 12.6528 26.9084 12.4636 26.9084 12.4636C26.879 12.898 26.7972 13.1849 26.5849 13.426C26.5892 13.4945 26.5914 13.5628 26.5915 13.6309C26.8115 13.4291 27.0351 13.2185 27.0351 13.2185C27.0041 13.6767 26.8031 13.9783 26.5383 14.2294C26.512 14.3745 26.4761 14.5181 26.4308 14.6601L26.4066 14.7349C26.706 14.6063 27.0333 14.4602 27.0333 14.4602C26.8379 14.8607 26.5526 15.0813 26.2282 15.2357C26.1588 15.4151 26.0856 15.5886 26.0089 15.7556C26.3602 15.6708 26.8847 15.5312 26.8847 15.5312C26.5736 15.9499 26.192 16.1162 25.782 16.2119C25.6982 16.3675 25.6112 16.5162 25.5213 16.6573C25.8541 16.5743 26.2447 16.4704 26.2447 16.4704C25.9426 16.877 25.574 17.0456 25.1774 17.1426C24.9157 17.4732 24.6356 17.7449 24.3433 17.9482C24.6654 18.0782 25.0709 18.2338 25.0709 18.2338C24.613 18.3548 24.247 18.3084 23.913 18.1937C23.8999 18.1996 23.8868 18.2053 23.8737 18.2109C23.7295 18.2723 23.5681 18.3302 23.3859 18.3867C23.65 18.4911 23.9015 18.5876 23.9015 18.5876C23.4542 18.7058 23.0947 18.6643 22.7669 18.5554L22.7314 18.5641C22.5706 18.603 22.407 18.6403 22.1914 18.6878C22.3339 18.6564 21.8076 18.7718 21.7007 18.7959C21.3585 18.8733 21.1637 18.9277 21.0701 18.9745C21.0614 18.9789 21.055 18.9825 21.051 18.9848L21.051 18.9848C21.0469 18.9871 21.0452 18.988 21.0461 18.987L20.7843 18.8179C20.8147 18.7808 20.8568 18.7512 20.9113 18.724C21.0397 18.6597 21.248 18.6016 21.6209 18.5172C21.727 18.4932 22.2368 18.3814 22.1214 18.4069C22.3309 18.3607 22.4903 18.3243 22.6463 18.2866C22.6928 18.2753 22.7383 18.2641 22.7826 18.2529C22.7453 17.9471 22.7887 17.6301 23.0233 17.2769C23.0233 17.2769 23.1254 17.8286 23.1947 18.1407C23.4016 18.0793 23.5799 18.0171 23.7339 17.9515C23.7859 17.9294 23.8378 17.9047 23.8894 17.8774C23.9101 17.5654 24.0132 17.2551 24.3182 16.9383C24.3182 16.9383 24.3136 17.289 24.3153 17.5929C24.528 17.4203 24.7346 17.2056 24.9315 16.9535L24.7934 17.0185C24.7782 16.6294 24.8457 16.2459 25.2244 15.8525C25.2244 15.8525 25.2195 16.2319 25.2218 16.5434C25.3448 16.3526 25.4627 16.1464 25.5743 15.9262C25.4706 15.6236 25.4456 15.2976 25.6122 14.9025C25.6122 14.9025 25.7113 15.1534 25.8152 15.4065C25.8456 15.3345 25.8754 15.2614 25.9046 15.1871C25.6924 14.8706 25.5563 14.52 25.6574 14.0374C25.6574 14.0374 25.8986 14.4188 26.0825 14.6953C26.095 14.6576 26.1074 14.6197 26.1195 14.5815C26.1582 14.4604 26.1895 14.338 26.2132 14.2143C25.9108 13.9866 25.6664 13.7029 25.5797 13.2395C25.5797 13.2395 25.984 13.5482 26.2658 13.7529C26.2696 13.6499 26.2684 13.5462 26.2618 13.4418C25.9363 13.2661 25.6559 13.0263 25.4867 12.6003C25.4867 12.6003 25.8855 12.8104 26.1967 12.967C26.1746 12.8623 26.1473 12.7569 26.1147 12.6509L26.1143 12.6612C25.7276 12.4783 25.3877 12.2346 25.1938 11.7464C25.1938 11.7464 25.5944 11.9575 25.906 12.1142C25.8656 12.0282 25.8218 11.9418 25.7744 11.8552C25.7181 11.7521 25.6382 11.6291 25.5348 11.4865C25.1895 11.3893 24.8682 11.2207 24.5949 10.8665C24.5949 10.8665 24.8709 10.9353 25.1572 11.0034C24.9912 10.8025 24.7965 10.5776 24.5733 10.3292L24.8261 10.1497C24.9181 10.2521 25.0054 10.3506 25.088 10.4452Z" clip-rule="evenodd"/><g id="Group"><path id="Path 74" fill="#EFE298" fill-rule="evenodd" d="M18.0942 11.3227L19.4523 14.5219H18.454C18.454 14.5219 18.0942 15.5316 18.7733 15.5316C19.4523 15.5316 22.9515 15.5316 22.9515 15.5316C22.9515 15.5316 23.4065 15.2784 23.179 14.5219C22.9515 13.7655 21.8022 11.6772 21.8022 11.6772C21.8022 11.6772 22.2933 11.3307 22.2933 11.0738C22.2933 10.8169 21.8022 10.7886 21.8022 10.7886H18.7023C18.3066 10.8456 18.0942 11.3227 18.0942 11.3227Z" clip-rule="evenodd"/><g id="Path 5"><path fill="#C5A042" d="M19.249 12.5007L21.3583 12.3842Z"/><path stroke="#B47D00" stroke-width="0.5" d="M19.249 12.5007L21.3583 12.3842"/></g><g id="Path 5_2"><path fill="#C5A042" d="M19.7627 13.5207L21.872 13.4043Z"/><path stroke="#B47D00" stroke-width="0.5" d="M19.7627 13.5207L21.872 13.4043"/></g><g id="Path 5_3"><path fill="#C5A042" d="M20.1636 14.5412L22.2729 14.4248Z"/><path stroke="#B47D00" stroke-width="0.5" d="M20.1636 14.5412L22.2729 14.4248"/></g></g><path id="Path 430" fill="#5AB92D" fill-rule="evenodd" d="M20.8653 9.5874C20.8653 9.5874 20.5404 9.64606 20.5404 9.82847C20.5404 10.0109 20.4526 10.1664 20.4526 10.1664C20.4526 10.1664 20.5518 10.9984 21.2924 11.1914C22.033 11.3845 22.4672 11.4309 22.779 11.8181C23.0908 12.2054 24.0473 13.2987 23.6637 14.2416C23.2801 15.1846 22.9789 15.6657 22.9789 15.6657C22.9789 15.6657 24.378 14.4943 24.378 13.9389C24.378 13.3836 24.1713 12.8454 23.5515 12.1402C22.9317 11.4351 22.6433 11.0228 22.1815 10.7051C21.7198 10.3874 21.0581 10.0942 21.0581 10.0942C21.0581 10.0942 21.2936 9.87035 21.1759 9.76511C21.0581 9.65986 20.8653 9.5874 20.8653 9.5874Z" clip-rule="evenodd"/></g></g></g></g></g></g><defs><filter id="filter0_dd_91_27824" width="42" height="30" x="0" y="0" color-interpolation-filters="sRGB" filterUnits="userSpaceOnUse"><feFlood flood-opacity="0" result="BackgroundImageFix"/><feColorMatrix in="SourceAlpha" result="hardAlpha" values="0 0 0 0 0 0 0 0 0 0 0 0 0 0 0 0 0 0 127 0"/><feOffset dy="1"/><feGaussianBlur stdDeviation="1"/><feColorMatrix values="0 0 0 0 0.0627451 0 0 0 0 0.0941176 0 0 0 0 0.156863 0 0 0 0.06 0"/><feBlend in2="BackgroundImageFix" result="effect1_dropShadow_91_27824"/><feColorMatrix in="SourceAlpha" result="hardAlpha" values="0 0 0 0 0 0 0 0 0 0 0 0 0 0 0 0 0 0 127 0"/><feOffset dy="1"/><feGaussianBlur stdDeviation="1.5"/><feColorMatrix values="0 0 0 0 0.0627451 0 0 0 0 0.0941176 0 0 0 0 0.156863 0 0 0 0.1 0"/><feBlend in2="effect1_dropShadow_91_27824" result="effect2_dropShadow_91_27824"/><feBlend in="SourceGraphic" in2="effect2_dropShadow_91_27824" result="shape"/></filter><clipPath id="clip0_91_27824"><rect width="36" height="24" x="3" y="2" fill="white" rx="2"/></clipPath></defs></svg>

<svg xmlns="http://www.w3.org/2000/svg" fill="none" aria-hidden="true" viewBox="0 0 42 30"><g filter="url(#a)"><g clip-path="url(#b)"><mask id="c" width="36" height="24" x="3" y="2" maskUnits="userSpaceOnUse" style="mask-type:alpha"><path fill="#fff" d="M3 2h36v24H3z"/></mask><g mask="url(#c)"><path fill="#58A5FF" fill-rule="evenodd" d="M27.75 2H39v24H27.75V2ZM3 2h13.5v24H3V2Z" clip-rule="evenodd"/><path fill="#fff" fill-rule="evenodd" d="M14.25 2h13.5v24h-13.5V2Z" clip-rule="evenodd"/><path fill="#6C301F" fill-rule="evenodd" d="m16.24 17.718.586.683 2.666-3.212v-.568l-3.253 3.097Z" clip-rule="evenodd"/><path fill="#979797" d="m18.08 14.136.195-.239c2.524 1.687 4.312 2.982 5.312 4.061l-.624.458c-.95-1.026-2.406-2.625-4.883-4.28Zm4.068-1.411-.29-.25 1.591-1.46.35.302 1.652-1.368.275.263-1.934 1.601-.334-.289-1.31 1.201Z"/><path fill="#5AB92D" fill-rule="evenodd" d="M17.069 10.445a42.274 42.274 0 0 1-.181-.734c-.213.433-.28.826-.195 1.177-.09.111-.172.215-.246.312-.229-.27-.515-.773-.515-.773.01.147.005.296.001.442-.01.34-.02.658.16.857l-.002.003a4.65 4.65 0 0 0-.102.198c-.248-.22-.66-.617-.66-.617.032.476.18.85.45 1.118-.05.14-.09.278-.122.416-.208-.191-.409-.38-.409-.38.03.434.112.72.324.962a3.43 3.43 0 0 0-.007.205c-.22-.202-.443-.412-.443-.412.03.458.232.76.496 1.01.027.146.063.29.108.431l.024.075c-.3-.129-.627-.275-.627-.275.196.4.481.621.806.776.069.18.142.353.219.52a49.723 49.723 0 0 1-.876-.225c.311.419.693.585 1.103.68.084.157.17.305.26.446a59.003 59.003 0 0 1-.723-.187c.302.407.67.576 1.067.673.262.33.542.602.834.805-.322.13-.727.286-.727.286a1.9 1.9 0 0 0 1.158-.04l.039.017c.144.061.306.12.488.176-.264.104-.516.2-.516.2.448.119.807.077 1.135-.032l.035.01c.161.038.325.075.54.123l.491.108c.342.077.537.132.63.178a.398.398 0 0 1 .02.01l.005.003.261-.17a.375.375 0 0 0-.127-.093c-.128-.064-.336-.122-.71-.207l-.5-.11a26.216 26.216 0 0 1-.66-.154 1.372 1.372 0 0 0-.242-.976s-.102.552-.171.864a5.051 5.051 0 0 1-.54-.19 2.051 2.051 0 0 1-.155-.074c-.02-.312-.123-.622-.428-.939 0 0 .004.351.002.655a3.956 3.956 0 0 1-.616-.64l.138.066c.015-.39-.052-.773-.43-1.166 0 0 .004.379.002.69a6.905 6.905 0 0 1-.353-.617 1.354 1.354 0 0 0-.038-1.024s-.099.251-.203.505a9.453 9.453 0 0 1-.089-.22c.212-.316.348-.667.247-1.15 0 0-.24.382-.425.658a3.137 3.137 0 0 1-.13-.481c.302-.227.546-.511.633-.974 0 0-.404.308-.686.513a3.11 3.11 0 0 1 .004-.311c.326-.176.606-.416.775-.842 0 0-.399.21-.71.367.022-.105.05-.21.082-.316v.01c.387-.183.727-.426.92-.915 0 0-.4.211-.711.368a3.54 3.54 0 0 1 .371-.628c.345-.097.666-.265.94-.62 0 0-.276.07-.563.137.167-.2.361-.425.585-.674l-.253-.18-.262.296Z" clip-rule="evenodd"/><path fill="#5AB92D" fill-rule="evenodd" d="M25.088 10.445c.085-.328.18-.734.18-.734.214.433.281.826.195 1.177.091.111.173.215.246.312.23-.27.516-.773.516-.773a4.51 4.51 0 0 0-.001.442c.01.34.02.658-.16.857l.002.003a6.2 6.2 0 0 1 .102.198c.248-.22.66-.617.66-.617-.032.476-.18.85-.45 1.118.05.14.09.278.121.416.209-.191.41-.38.41-.38-.03.434-.112.72-.324.962.004.069.006.137.006.205.22-.202.444-.412.444-.412-.03.458-.232.76-.497 1.01a3.427 3.427 0 0 1-.107.431l-.024.075c.299-.129.626-.275.626-.275-.195.4-.48.621-.805.776-.07.18-.142.353-.22.52.352-.085.877-.225.877-.225-.311.419-.693.585-1.103.68a6.71 6.71 0 0 1-.26.446c.332-.083.723-.187.723-.187-.302.407-.671.576-1.068.673-.261.33-.541.602-.834.805.322.13.728.286.728.286a1.9 1.9 0 0 1-1.158-.04 5.114 5.114 0 0 1-.527.193c.264.104.515.2.515.2a1.897 1.897 0 0 1-1.134-.032l-.036.01a26.4 26.4 0 0 1-.54.123l-.49.108c-.343.077-.537.132-.63.178a.398.398 0 0 0-.02.01l-.005.003-.262-.17a.376.376 0 0 1 .127-.093c.129-.064.337-.122.71-.207l.5-.11a26.216 26.216 0 0 0 .662-.154 1.372 1.372 0 0 1 .24-.976s.102.552.172.864c.207-.062.385-.124.539-.19.052-.022.104-.046.155-.074.021-.312.124-.622.43-.939 0 0-.005.351-.004.655a3.89 3.89 0 0 0 .616-.64l-.138.066c-.015-.39.053-.773.431-1.166 0 0-.005.379-.002.69.123-.19.24-.397.352-.617a1.355 1.355 0 0 1 .038-1.024l.203.505.09-.22c-.213-.316-.349-.667-.248-1.15 0 0 .242.382.425.658l.037-.114c.04-.12.07-.243.094-.367-.302-.227-.547-.511-.633-.975 0 0 .404.31.686.514a3.11 3.11 0 0 0-.004-.311c-.326-.176-.606-.416-.775-.842 0 0 .399.21.71.367a3.615 3.615 0 0 0-.082-.316v.01c-.387-.183-.727-.426-.921-.915 0 0 .4.211.712.368a3.554 3.554 0 0 0-.371-.628 1.706 1.706 0 0 1-.94-.62s.276.07.562.137c-.166-.2-.36-.425-.584-.674l.253-.18.262.296Z" clip-rule="evenodd"/><path fill="#EFE298" fill-rule="evenodd" d="m18.094 11.323 1.358 3.199h-.998s-.36 1.01.32 1.01h4.177s.456-.254.228-1.01c-.227-.757-1.377-2.845-1.377-2.845s.491-.346.491-.603-.49-.285-.49-.285h-3.1c-.396.057-.609.534-.609.534Z" clip-rule="evenodd"/><path fill="#C5A042" d="m19.249 12.5 2.11-.116Z"/><path stroke="#B47D00" stroke-width=".5" d="m19.249 12.5 2.11-.116"/><path fill="#C5A042" d="m19.763 13.52 2.109-.116Z"/><path stroke="#B47D00" stroke-width=".5" d="m19.763 13.52 2.109-.116"/><path fill="#C5A042" d="m20.164 14.541 2.109-.116Z"/><path stroke="#B47D00" stroke-width=".5" d="m20.164 14.541 2.109-.116"/><path fill="#5AB92D" fill-rule="evenodd" d="M20.865 9.587s-.325.06-.325.241c0 .183-.087.338-.087.338s.099.832.84 1.025c.74.193 1.174.24 1.486.627.312.387 1.268 1.48.885 2.424-.384.943-.685 1.424-.685 1.424s1.399-1.172 1.399-1.727c0-.555-.207-1.094-.826-1.799-.62-.705-.909-1.117-1.37-1.435-.462-.318-1.124-.61-1.124-.61s.236-.225.118-.33a1.187 1.187 0 0 0-.31-.178Z" clip-rule="evenodd"/></g></g></g><defs><clipPath id="b"><rect width="36" height="24" x="3" y="2" fill="#fff" rx="2"/></clipPath><filter id="a" width="42" height="30" x="0" y="0" color-interpolation-filters="sRGB" filterUnits="userSpaceOnUse"><feFlood flood-opacity="0" result="BackgroundImageFix"/><feColorMatrix in="SourceAlpha" result="hardAlpha" values="0 0 0 0 0 0 0 0 0 0 0 0 0 0 0 0 0 0 127 0"/><feOffset dy="1"/><feGaussianBlur stdDeviation="1"/><feColorMatrix values="0 0 0 0 0.0627451 0 0 0 0 0.0941176 0 0 0 0 0.156863 0 0 0 0.06 0"/><feBlend in2="BackgroundImageFix" result="effect1_dropShadow_91_27824"/><feColorMatrix in="SourceAlpha" result="hardAlpha" values="0 0 0 0 0 0 0 0 0 0 0 0 0 0 0 0 0 0 127 0"/><feOffset dy="1"/><feGaussianBlur stdDeviation="1.5"/><feColorMatrix values="0 0 0 0 0.0627451 0 0 0 0 0.0941176 0 0 0 0 0.156863 0 0 0 0.1 0"/><feBlend in2="effect1_dropShadow_91_27824" result="effect2_dropShadow_91_27824"/><feBlend in="SourceGraphic" in2="effect2_dropShadow_91_27824" result="shape"/></filter></defs></svg>
